assets/img/sika-logo.svg

<svg width="70" height="60" viewBox="0 0 70 60" fill="none" xmlns="http://www.w3.org/2000/svg">
<path d="M65.7876 35.168C66.3493 35.168 66.9109 35.3067 67.4726 35.5842C68.0343 35.8616 68.4556 36.2778 68.7364 36.8327C69.0173 37.3876 69.1577 37.9425 69.1577 38.4975C69.1577 39.0524 69.0173 39.6073 68.7364 40.1622C68.4556 40.7171 68.0343 41.1333 67.4726 41.4107C66.9109 41.6882 66.3493 41.8269 65.7876 41.8269C65.2259 41.8269 64.6642 41.6882 64.1025 41.4107C63.5408 41.1333 63.1196 40.7171 62.8387 40.1622C62.5579 39.6073 62.4175 39.0524 62.4175 38.4975C62.4175 37.9425 62.5579 37.3876 62.8387 36.8327C63.1196 36.2778 63.5408 35.8616 64.1025 35.5842C64.6642 35.3067 65.2259 35.168 65.7876 35.168ZM65.7876 35.7229C65.2961 35.7229 64.8748 35.8616 64.3834 36.0697C63.9621 36.2778 63.6111 36.6246 63.3302 37.1102C63.0494 37.5957 62.9792 38.0119 62.9792 38.4975C62.9792 38.983 63.1196 39.4685 63.3302 39.8847C63.6111 40.3009 63.9621 40.6477 64.3834 40.9252C64.8046 41.2027 65.2961 41.272 65.7876 41.272C66.2791 41.272 66.7705 41.1333 67.1918 40.9252C67.6131 40.6477 67.9641 40.3009 68.245 39.8847C68.5258 39.4685 68.596 38.983 68.596 38.4975C68.596 38.0119 68.4556 37.5264 68.245 37.1102C67.9641 36.694 67.6131 36.3472 67.1918 36.0697C66.7003 35.8616 66.2791 35.7229 65.7876 35.7229ZM64.3132 40.3703V36.7633H65.577C65.9982 36.7633 66.3493 36.7633 66.4897 36.8327C66.7003 36.9021 66.8408 37.0408 66.9812 37.1795C67.1216 37.3183 67.1216 37.5263 67.1216 37.7344C67.1216 38.0119 67.0514 38.22 66.8407 38.4281C66.6301 38.6362 66.4195 38.7055 66.0684 38.7749C66.2088 38.8443 66.2791 38.9136 66.3493 38.983C66.4897 39.1217 66.7003 39.3298 66.911 39.6766L67.3322 40.3703H66.6301L66.2791 39.8154C65.9982 39.3992 65.7876 39.1217 65.6472 38.983C65.5068 38.9136 65.3663 38.8443 65.1557 38.8443H64.8046V40.3703H64.3132ZM64.8749 38.3587H65.577C65.928 38.3587 66.1386 38.2894 66.2791 38.22C66.4195 38.1506 66.4897 38.0119 66.4897 37.8038C66.4897 37.6651 66.4897 37.5957 66.4195 37.5264C66.3493 37.457 66.2791 37.3876 66.1386 37.3183C65.9982 37.2489 65.8578 37.2489 65.577 37.2489H64.8749V38.3587Z" fill="#EAF0FF"/>
<path d="M35.0351 0L70 60H0L35.0351 0Z" fill="#EAF0FF"/>

<path d="M50.0601 51.3989C48.3048 51.4683 47.3219 50.6359 47.3219 49.8035C47.3219 48.6937 49.0771 48.3469 50.4813 48.3469C51.8855 48.4163 52.8685 48.6937 52.8685 49.8035C52.8685 50.6359 51.5345 51.3295 50.0601 51.3989ZM56.9407 53.0637C57.0811 52.6475 57.2216 51.5376 57.2216 51.5376C57.2216 51.3989 57.2918 50.9134 56.8705 50.844C56.4492 50.7053 55.5365 50.844 55.5365 50.2197C55.5365 50.0116 56.3088 46.4047 56.379 45.2255C56.4492 44.0463 56.379 42.5203 54.4833 41.7573C53.7812 41.4798 47.5325 41.5492 47.5325 41.5492C47.1814 41.5492 46.8304 41.7573 46.7602 42.1041L46.4793 43.422C46.4091 43.6995 46.69 43.9769 47.041 43.9769C47.041 43.9769 49.709 43.9769 51.3941 43.9769C52.9387 43.9769 53.5004 44.2544 53.5004 44.5319C53.5004 44.8093 53.5706 46.266 52.9387 46.266C52.377 46.266 44.5836 44.74 44.5836 49.8035C44.5836 50.7053 43.1092 50.9827 42.688 50.4278C42.2667 49.8035 40.3008 47.8613 40.2306 47.5145C40.2306 47.1677 43.6007 45.4336 44.3028 42.5897C44.373 42.3122 44.4432 41.6186 43.8815 41.6186C43.5305 41.6186 42.1263 41.6186 41.8454 41.6186C41.5646 41.6186 41.2135 41.6879 40.8625 42.3122C39.4583 45.503 35.8775 46.1966 36.0882 45.0174C36.1584 44.6012 40.3008 22.0579 40.3008 22.0579C40.371 21.711 40.1604 21.4336 39.8093 21.4336H37.4222C37.0711 21.4336 36.7903 21.711 36.72 22.0579L31.033 52.9943C30.9628 53.3411 31.1734 53.6186 31.5245 53.6186H33.9116C34.2627 53.6186 34.5435 53.3411 34.6137 52.9943L35.3158 49.5261C35.5265 49.0405 35.8073 48.8324 36.4392 48.8324C38.7562 48.8324 40.02 53.8267 42.4071 53.8267C43.8815 53.8267 45.5666 52.7862 45.9176 52.7862C46.6198 52.7862 46.9708 53.8267 49.2877 53.8267C51.3239 53.8267 52.8685 53.0637 53.2898 53.0637C53.711 53.0637 54.6238 53.5492 55.045 53.6186C56.1684 53.9654 56.8003 53.4798 56.9407 53.0637Z" fill="#F8AD00"/>
<path d="M12.7078 53.8959C12.8482 53.8265 12.9886 53.6878 13.0588 53.6878C13.129 53.6878 13.2694 53.6878 13.4801 53.6878C15.1651 54.1733 21.133 55.6993 22.6075 48.8323L26.6797 26.8438C26.6797 26.5664 27.1712 23.7918 31.1029 25.1097C32.4369 25.5259 32.5072 24.9016 32.5774 24.7629L33.2093 22.1964C33.2093 21.4334 32.6476 21.6415 31.5242 21.4334C30.6817 21.2947 30.4008 21.7109 30.1902 21.8496C29.9796 21.919 29.2775 21.7803 28.2945 21.7109C27.6626 21.7109 24.0819 22.1271 23.3798 25.5953L19.448 46.682C19.2373 47.3063 19.3076 53.2716 12.4269 49.9421C11.2333 49.3872 10.8121 49.6647 10.6716 50.2889C10.6014 50.7051 10.2504 52.8554 10.1802 53.3409C10.1802 53.549 10.3206 53.8265 10.6716 53.8265C11.0227 53.8959 11.5844 53.9652 11.9354 54.0346C12.2163 54.0346 12.4971 54.0346 12.7078 53.8959Z" fill="#F8AD00"/>
</svg>

<svg xmlns="http://www.w3.org/2000/svg" width="70" height="60" fill="none"><path fill="#E30613" d="M65.788 35.168c.561 0 1.123.139 1.685.416.561.278.983.694 1.263 1.249.281.555.422 1.11.422 1.665 0 .554-.14 1.11-.422 1.664-.28.555-.702.971-1.263 1.249a3.775 3.775 0 0 1-1.685.416 3.775 3.775 0 0 1-1.685-.416 2.739 2.739 0 0 1-1.264-1.249c-.281-.555-.422-1.11-.422-1.664 0-.555.14-1.11.422-1.665.28-.555.702-.971 1.264-1.249a3.775 3.775 0 0 1 1.685-.416Zm0 .555c-.492 0-.913.139-1.405.347-.42.208-.772.555-1.053 1.04-.28.486-.35.902-.35 1.388 0 .485.14.97.35 1.387.281.416.632.763 1.053 1.04.422.278.913.347 1.405.347.491 0 .983-.139 1.404-.347a3.74 3.74 0 0 0 1.053-1.04c.28-.416.351-.902.351-1.387 0-.486-.14-.972-.351-1.388a3.74 3.74 0 0 0-1.053-1.04c-.492-.208-.913-.347-1.404-.347Zm-1.475 4.647v-3.607h1.264c.421 0 .772 0 .913.07.21.07.35.208.491.346.14.14.14.347.14.555 0 .278-.07.486-.28.694-.21.208-.421.278-.773.347.14.07.211.139.281.208.14.139.351.347.562.694l.421.693h-.702l-.35-.555c-.282-.416-.492-.693-.633-.832-.14-.07-.28-.139-.491-.139h-.351v1.526h-.492Zm.562-2.011h.702c.351 0 .562-.07.702-.139.14-.07.21-.208.21-.416 0-.139 0-.208-.07-.278-.07-.069-.14-.138-.28-.208-.14-.07-.281-.07-.562-.07h-.702v1.11Z"/><path fill="#D8282F" d="M35.035 0 70 60H0L35.035 0Z"/><path fill="#F8AD00" d="M29.769 41.619h-2.387c-.351 0-.632.277-.703.624l-1.965 10.82c-.07.348.14.625.491.625h2.387c.351 0 .632-.277.702-.624l1.966-10.821c.07-.347-.14-.624-.491-.624ZM31.244 37.18l.35-2.081c.07-.347-.14-.625-.49-.625h-2.388c-.351 0-.632.278-.702.625l-.351 2.08c-.07.347.14.625.491.625h2.387c.281 0 .632-.278.703-.624ZM50.06 51.399c-1.755.07-2.738-.763-2.738-1.596 0-1.11 1.755-1.456 3.16-1.456 1.404.07 2.386.347 2.386 1.456 0 .833-1.334 1.527-2.808 1.596Zm6.88 1.665c.141-.416.282-1.526.282-1.526 0-.14.07-.625-.352-.694-.42-.139-1.334 0-1.334-.624 0-.208.773-3.815.843-4.995.07-1.179 0-2.705-1.896-3.468-.702-.277-6.95-.208-6.95-.208-.352 0-.703.208-.773.555l-.28 1.318c-.07.278.21.555.561.555h4.353c1.545 0 2.106.277 2.106.555 0 .277.07 1.734-.561 1.734-.562 0-8.355-1.526-8.355 3.538 0 .901-1.475 1.179-1.896.624-.421-.624-2.387-2.567-2.457-2.913 0-.347 3.37-2.081 4.072-4.925.07-.278.14-.971-.421-.971h-2.037c-.28 0-.631.069-.983.693-1.404 3.191-4.985 3.885-4.774 2.705.07-.416 4.213-22.96 4.213-22.96.07-.346-.14-.623-.492-.623h-2.387c-.35 0-.632.277-.702.624l-5.687 30.936c-.07.347.14.625.491.625h2.388c.35 0 .632-.278.702-.625l.702-3.468c.21-.486.491-.694 1.123-.694 2.317 0 3.581 4.995 5.968 4.995 1.475 0 3.16-1.04 3.51-1.04.703 0 1.054 1.04 3.37 1.04 2.037 0 3.581-.763 4.003-.763.421 0 1.334.485 1.755.555 1.123.346 1.755-.14 1.896-.555Z"/><path fill="#F8AD00" d="M12.708 53.896c.14-.07.28-.208.35-.208h.422c1.685.485 7.653 2.011 9.128-4.856l4.072-21.988c0-.278.491-3.052 4.423-1.734 1.334.416 1.404-.208 1.474-.347l.632-2.567c0-.763-.561-.555-1.685-.763-.842-.138-1.123.278-1.334.417-.21.069-.913-.07-1.896-.14-.631 0-4.212.417-4.914 3.885l-3.932 21.087c-.21.624-.14 6.59-7.021 3.26-1.194-.555-1.615-.277-1.755.347-.07.416-.422 2.566-.492 3.052 0 .208.14.486.492.486.35.069.912.138 1.263.208.281 0 .562 0 .773-.14Z"/></svg>
